X: 337
T: Kangri xiaochang
L: 1/8
M: 2/4
K: F
F F/ E/ D C [I:setbarnb 1]| 
c> d A c | 
f e/ d/ c/ d/ c/ A/ | 
c G/ A/G2 | 
G> A c d | 
f> e d c | 
c G/ A/ G D/ E/ | 
C4 | 
C C/ D/F2 | 
G> A c d | 
c A G F | 
E D/ C/D2 | 
c> d A c | 
f e/ d/ c A | 
c c/ d/ c F | 
G> A G/ F/ E/ D/ | 
C4 |]

@@@ Tune index: 9211
